X:1
T:St. Austell, 77.77
T:Arthur Henry Brown, 1876
T:St. Austell, 77.77
T:Public Domain
C:Arthur Henry Brown, 1876
Z:Public Domain
%%score ( 1 2 ) ( 3 4 )
L:1/8
M:3/4
K:D
V:1 treble 
V:2 treble 
V:3 bass 
V:4 bass 
V:1
 [FA]4 [GB]2 | [FA]2 [EG]2 [DF]2 | [EG]4 [DF]2 | [CE]6 | [DF]2 [EG]2 [DF]2 | (D2 C2) [DA]2 | %6
 ([FB]2 [EA]2) [E^G]2 | [EA]6 | [Dd]4 [Dc]2 | (D2 C2) [DB]2 | (B2 A2) [EG]2 | G4 F2 | z2 D2 [CB]2 | %13
 A2 F2 D2 | [DF]4 [CE]2 | D6 |] %16
V:2
 x6 | x6 | x6 | x6 | x6 | E4 x2 | x6 | x6 | x6 | B4 x2 | E4 x2 | D6 | E4 x2 | D4 x2 | x6 | D6 |] %16
V:3
 [D,D]4 [G,D]2 | [D,D]4 [D,A,]2 | [G,B,]4 [^G,B,]2 | [A,C]6 | D,2 C,2 [D,A,]2 | z3 G, [F,A,]2 | %6
 [D,D]2 [E,C]2 [E,D]2 | [A,C]6 | [F,A,]4 [F,A,]2 | G,4 G,2 | (G,2 A,2) [C,B,]2 | (B,4 A,2) | %12
 [F,A,]4 [B,,F,]2 | [F,A,]4 [B,,F,]2 | [A,,A,]4 [A,,G,]2 | [D,F,]6 |] %16
V:4
 x6 | x6 | x6 | x6 | A,4 x2 | A,4 x2 | x6 | x6 | x6 | G,4 G,2 | C,4 x2 | D,6 | x6 | x6 | x6 | x6 |] %16

